X: 14
T: JUBILEE ROUNDABOUT, second tune
C: Freda Burford, 1961
S: "Community Dances Manual 6", EFDSS, Jack Hamilton ed., 1981 p.9
R: reel
Z: 2010 John Chambers <jc:trillian.mit.edu>
M: 4/4
L: 1/8
K: G
"A"|: G2 |\
"G"B2d2 g3b | "C"agfe "G"d3d | "C"e2g2 "G"d2B2 | "Am"ed"(C6)"cB "D7"AGFE |\
"G"D2GD "C"E2AE | "D"F2BF "Em"GABc | "Am"d2g2 "D7"dcBA | "G"B2G2 G2z2 :|
"B"|:\
"Em"g3g g2e2 | "Bm"edef "Em"g2e2 | "Bm"d2B2 "Em"e2B2 | "Am"AGAB "D7"AcBA |\
"G"G2GB "D"A2Ac | "G"B2d2 "C"bagf | "G"g2B2 "D"AcBA | "G"B2G2 G2z2 :|

%%sep 2 1 500
%%sep 1 1 500

